icons/square/48/hexalate.svg

<svg width="48" height="48" version="1.1" viewBox="0 0 48 48.000001" xmlns="http://www.w3.org/2000/svg" xmlns:xlink="http://www.w3.org/1999/xlink">
 <defs>
  <linearGradient id="linearGradient864" x1="-47" x2="-1" y1="2.8779e-15" y2="6.1232e-17" gradientTransform="rotate(-90 24 24)" gradientUnits="userSpaceOnUse">
   <stop style="stop-color:#3d3d3d" offset="0"/>
   <stop style="stop-color:#474747" offset="1"/>
  </linearGradient>
 </defs>
 <g transform="translate(0 3.949e-5)">
  <path d="m1 43v0.25c0 2.216 1.784 4 4 4h38c2.216 0 4-1.784 4-4v-0.25c0 2.216-1.784 4-4 4h-38c-2.216 0-4-1.784-4-4zm0 0.5v0.5c0 2.216 1.784 4 4 4h38c2.216 0 4-1.784 4-4v-0.5c0 2.216-1.784 4-4 4h-38c-2.216 0-4-1.784-4-4z" style="opacity:.02"/>
  <path d="m1 43.25v0.25c0 2.216 1.784 4 4 4h38c2.216 0 4-1.784 4-4v-0.25c0 2.216-1.784 4-4 4h-38c-2.216 0-4-1.784-4-4z" style="opacity:.05"/>
  <path d="m1 43v0.25c0 2.216 1.784 4 4 4h38c2.216 0 4-1.784 4-4v-0.25c0 2.216-1.784 4-4 4h-38c-2.216 0-4-1.784-4-4z" style="opacity:.1"/>
 </g>
 <rect transform="rotate(-90)" x="-47" y="1" width="46" height="46" rx="4" style="fill:url(#linearGradient864)"/>
 <path d="m18.25 2l5.75 23 5.75-23h-11.5zm5.75 23l23-6.5801v-12.42c0-0.91984-0.31982-1.7554-0.83789-2.4297l-22.162 21.43zl18.615 18h0.38477c2.216 0 4-1.784 4-4v-7.4199l-23-6.5801zl-4.5 18h9l-4.5-18zl-23 6.5801v7.4199c0 2.216 1.784 4 4 4h0.38477l18.615-18zl-22.162-21.43c-0.51807 0.67428-0.83789 1.5099-0.83789 2.4297v12.42l23 6.5801zm-22.906 18.85c0.0045727 0.02086 0.012678 0.039816 0.017578 0.060547-0.0047956-0.020686-0.013103-0.039737-0.017578-0.060547zm45.812 0c-0.004475 0.02081-0.012783 0.039861-0.017578 0.060547 0.0049-0.020731 0.013005-0.039687 0.017578-0.060547z" style="opacity:.1"/>
 <path d="m24 24l22.162 21.43c0.51807-0.67428 0.83789-1.5099 0.83789-2.4297v-12.42l-23-6.5801z" style="fill:#68d87b"/>
 <path d="m46.162 2.5703l-22.162 21.43 23-6.5801v-12.42c0-0.91984-0.31982-1.7554-0.83789-2.4297z" style="fill:#f1f05b"/>
 <path d="m24 24l-5.75 23h11.5l-5.75-23z" style="fill:#dedede"/>
 <path d="m18.25 1l5.75 23 5.75-23h-11.5z" style="fill:#ed7749"/>
 <path d="m1.8379 2.5703c-0.51807 0.67428-0.83789 1.5099-0.83789 2.4297v12.42l23 6.5801-22.162-21.43z" style="fill:#dc7096"/>
 <path d="m24 24l-23 6.5801v12.42c0 0.91984 0.31982 1.7554 0.83789 2.4297l22.162-21.43z" style="fill:#508fd0"/>
 <g transform="translate(0 3.949e-5)">
  <g transform="translate(0 -1004.4)">
   <path d="m1 1043.4v4c0 2.216 1.784 4 4 4h38c2.216 0 4-1.784 4-4v-4c0 2.216-1.784 4-4 4h-38c-2.216 0-4-1.784-4-4z" style="opacity:.1"/>
  </g>
 </g>
 <rect x="3" y="46" width="21" height="1" rx="4" ry="4" style="fill:none;opacity:.1;paint-order:normal"/>
</svg>

<svg width="48" height="48" viewBox="0 0 48 48.000001" xmlns="http://www.w3.org/2000/svg">
  <defs>
    <linearGradient id="a" x1="-47" x2="-1" gradientTransform="rotate(-90 24 24)" gradientUnits="userSpaceOnUse">
      <stop offset="0" stop-color="#3d3d3d"/>
      <stop offset="1" stop-color="#474747"/>
    </linearGradient>
  </defs>
  <path d="M1 43v.25c0 2.216 1.784 4 4 4h38c2.216 0 4-1.784 4-4V43c0 2.216-1.784 4-4 4H5c-2.216 0-4-1.784-4-4zm0 .5v.5c0 2.216 1.784 4 4 4h38c2.216 0 4-1.784 4-4v-.5c0 2.216-1.784 4-4 4H5c-2.216 0-4-1.784-4-4z" opacity=".02"/>
  <path d="M1 43.25v.25c0 2.216 1.784 4 4 4h38c2.216 0 4-1.784 4-4v-.25c0 2.216-1.784 4-4 4H5c-2.216 0-4-1.784-4-4z" opacity=".05"/>
  <path d="M1 43v.25c0 2.216 1.784 4 4 4h38c2.216 0 4-1.784 4-4V43c0 2.216-1.784 4-4 4H5c-2.216 0-4-1.784-4-4z" opacity=".1"/>
  <rect transform="rotate(-90)" x="-47" y="1" width="46" height="46" rx="4" fill="url(#a)"/>
  <path d="M18.25 2L24 25l5.75-23h-11.5zM24 25l23-6.58V6c0-.92-.32-1.756-.838-2.43L24 25zl18.615 18H43c2.216 0 4-1.784 4-4v-7.42L24 25zl-4.5 18h9L24 25zL1 31.58V39c0 2.216 1.784 4 4 4h.385L24 25zL1.838 3.57A3.97 3.97 0 0 0 1 6v12.42L24 25zM1.094 43.85l.018.06c-.005-.02-.014-.04-.018-.06zm45.812 0c-.004.02-.013.04-.018.06l.018-.06z" opacity=".1"/>
  <path d="M24 24l22.162 21.43A3.97 3.97 0 0 0 47 43V30.58L24 24z" fill="#68d87b"/>
  <path d="M46.162 2.57L24 24l23-6.58V5c0-.92-.32-1.755-.838-2.43z" fill="#f1f05b"/>
  <path d="M24 24l-5.75 23h11.5L24 24z" fill="#dedede"/>
  <path d="M18.25 1L24 24l5.75-23h-11.5z" fill="#ed7749"/>
  <path d="M1.838 2.57A3.97 3.97 0 0 0 1 5v12.42L24 24 1.838 2.57z" fill="#dc7096"/>
  <path d="M24 24L1 30.58V43c0 .92.32 1.756.838 2.43L24 24z" fill="#508fd0"/>
  <g>
    <path d="M1 39v4c0 2.216 1.784 4 4 4h38c2.216 0 4-1.784 4-4v-4c0 2.216-1.784 4-4 4H5c-2.216 0-4-1.784-4-4z" opacity=".1"/>
  </g>
  <rect x="3" y="46" width="21" height="1" rx="4" ry="4" fill="none" opacity=".1"/>
</svg>
